packages/kaspersky-hexa-ui-icons/src/iconsSVGs/24/Hmi.svg

<svg width="24" height="24" viewBox="0 0 24 24" fill="none" xmlns="http://www.w3.org/2000/svg">
<path fill-rule="evenodd" clip-rule="evenodd" d="M9.51643 14.0472C7.31234 13.069 5.77368 10.8617 5.77368 8.29282C5.77368 4.81739 8.59108 2 12.0665 2C15.5419 2 18.3593 4.81739 18.3593 8.29282C18.3593 9.76002 17.8567 11.1098 17.0158 12.1794L18.0573 12.578C19.4179 13.0987 20.2077 14.5217 19.93 15.9518L18.9126 21.1906C18.8213 21.6606 18.4097 22 17.9309 22H10.5164C10.2498 22 9.99416 21.8935 9.80639 21.7041L5.28997 17.1501C5.09433 16.9528 4.98958 16.683 5.00082 16.4055C5.01206 16.1279 5.13827 15.8674 5.34921 15.6866L6.40303 14.7834C6.62401 14.594 6.91654 14.5102 7.20427 14.554L9.51643 14.9059V14.0472ZM7.77368 8.29282C7.77368 5.92196 9.69564 4 12.0665 4C14.4374 4 16.3593 5.92196 16.3593 8.29282C16.3593 9.52157 15.8438 10.6299 15.0145 11.4135L14.565 11.2415V7.69531C14.565 6.30118 13.4348 5.17102 12.0407 5.17102C10.6466 5.17102 9.51643 6.30119 9.51643 7.69531V11.7468C8.45879 10.9644 7.77368 9.70793 7.77368 8.29282ZM11.5164 7.69531C11.5164 7.40575 11.7512 7.17102 12.0407 7.17102C12.3303 7.17102 12.565 7.40575 12.565 7.69531V11.9295C12.565 12.3439 12.8206 12.7153 13.2076 12.8634L17.3424 14.4459C17.796 14.6195 18.0592 15.0938 17.9667 15.5705L17.1064 20H10.9331L7.59782 16.6369L10.366 17.0582C10.6541 17.102 10.9471 17.018 11.1682 16.828C11.3892 16.638 11.5164 16.361 11.5164 16.0696V7.69531Z" fill="black"/>
</svg>

<svg xmlns="http://www.w3.org/2000/svg" width="24" height="24" fill="none" viewBox="0 0 24 24"><path fill="#000" fill-rule="evenodd" d="M9.5164 14.0472c-2.204-.9782-3.7427-3.1855-3.7427-5.7544C5.7737 4.8174 8.591 2 12.0665 2s6.2928 2.8174 6.2928 6.2928a6.268 6.268 0 0 1-1.3435 3.8866l1.0415.3986c1.3606.5207 2.1504 1.9437 1.8727 3.3738l-1.0174 5.2388a1 1 0 0 1-.9817.8094h-7.4145a1 1 0 0 1-.71-.2959L5.29 17.1501a1 1 0 0 1 .0592-1.4635l1.0538-.9032a1 1 0 0 1 .8013-.2294l2.3121.3519zM7.7737 8.2928C7.7737 5.922 9.6957 4 12.0665 4s4.2928 1.922 4.2928 4.2928c0 1.2288-.5155 2.3371-1.3448 3.1207l-.4495-.172V7.6953c0-1.3941-1.1302-2.5243-2.5243-2.5243S9.5164 6.3012 9.5164 7.6953v4.0515c-1.0576-.7824-1.7427-2.0389-1.7427-3.454m3.7427-.5975a.5243.5243 0 0 1 1.0486 0v4.2342a1 1 0 0 0 .6426.9339l4.1348 1.5825a1 1 0 0 1 .6243 1.1246L17.1064 20h-6.1733l-3.3353-3.3631 2.7682.4213a1.0002 1.0002 0 0 0 1.1504-.9886z"/></svg>
